X:58
T:Mullingar Races, The
T:Rover Through the Bog, The
R:hornpipe
Z:id:hn-hornpipe-58
M:C|
K:G
(3DEF|G2BG ABcA|defa gfdc|~B3d cBcA|GBAF DEFD|
G2BG ABcA|defa gfdc|~B3d cAFG|AGGF G2:|
|:Bd|~g3a gfdf|g2ag gfde|~f3g afge|fde^c d=cAF|
G2BG ABcA|defa gfdc|~B3d cAFG|AGGF G2:|

